colormanagement/luts/adx10_to_aces_lin.spi1d
Version 1
From 0.0 1.0
Length 1024
Components 1
{
0.176777
0.177377
0.177979
0.178583
0.179189
0.179797
0.180407
0.181019
0.181633
0.182250
0.182868
0.183489
0.184111
0.184736
0.185363
0.185992
0.186623
0.187257
0.187892
0.188530
0.189170
0.189811
0.190456
0.191102
0.191750
0.192401
0.193054
0.193709
0.194367
0.195026
0.195688
0.196352
0.197018
0.197687
0.198358
0.199031
0.199706
0.200384
0.201064
0.201747
0.202431
0.203118
0.203807
0.204499
0.205193
0.205889
0.206588
0.207289
0.207993
0.208698
0.209407
0.210117
0.210830
0.211546
0.212264
0.212984
0.213707
0.214432
0.215160
0.215890
0.216623
0.217358
0.218095
0.218835
0.219578
0.220323
0.221071
0.221821
0.222574
0.223329
0.224087
0.224847
0.225611
0.226376
0.227144
0.227915
0.228689
0.229465
0.230243
0.231025
0.231809
0.232595
0.233385
0.234177
0.234971
0.235769
0.236569
0.237372
0.238177
0.238986
0.239797
0.240610
0.241427
0.242246
0.243068
0.243893
0.244721
0.245551
0.246384
0.247221
0.248060
0.248901
0.249746
0.250594
0.251444
0.252297
0.253153
0.254013
0.254875
0.255739
0.256607
0.257478
0.258352
0.259229
0.260108
0.260991
0.261877
0.262765
0.263657
0.264552
0.265450
0.266350
0.267254
0.268161
0.269071
0.269984
0.270901
0.271820
0.272742
0.273668
0.274597
0.275529
0.276464
0.277402
0.278343
0.279288
0.280236
0.281186
0.282141
0.283098
0.284059
0.285023
0.285990
0.286961
0.287934
0.288912
0.289892
0.290876
0.291863
0.292853
0.293847
0.294844
0.295845
0.296849
0.297856
0.298867
0.299881
0.300899
0.301920
0.302945
0.303973
0.305004
0.306039
0.307078
0.308120
0.309166
0.310215
0.311267
0.312324
0.313384
0.314447
0.315514
0.316585
0.317659
0.318737
0.319819
0.320904
0.321993
0.323086
0.324182
0.325283
0.326386
0.327494
0.328605
0.329721
0.330839
0.331962
0.333089
0.334219
0.335353
0.336491
0.337633
0.338779
0.339929
0.341082
0.342240
0.343401
0.344567
0.345736
0.346909
0.348086
0.349268
0.350453
0.351642
0.352835
0.354033
0.355234
0.356440
0.357649
0.358863
0.360081
0.361303
0.362529
0.363759
0.364994
0.366232
0.367475
0.368722
0.369973
0.371229
0.372489
0.373753
0.375021
0.376294
0.377571
0.378852
0.380138
0.381428
0.382722
0.384021
0.385324
0.386632
0.387944
0.389260
0.390581
0.391907
0.393237
0.394571
0.395910
0.397254
0.398602
0.399955
0.401312
0.402674
0.404040
0.405411
0.406787
0.408168
0.409553
0.410943
0.412337
0.413736
0.415140
0.416549
0.417963
0.419381
0.420804
0.422232
0.423665
0.425103
0.426546
0.427993
0.429446
0.430903
0.432365
0.433833
0.435305
0.436782
0.438264
0.439752
0.441244
0.442741
0.444244
0.445751
0.447264
0.448782
0.450305
0.451833
0.453366
0.454905
0.456448
0.457997
0.459552
0.461111
0.462676
0.464246
0.465822
0.467402
0.468989
0.470580
0.472177
0.473779
0.475387
0.477000
0.478619
0.480243
0.481873
0.483508
0.485149
0.486796
0.488448
0.490105
0.491768
0.493437
0.495112
0.496792
0.498478
0.500169
0.501867
0.503570
0.505279
0.506993
0.508714
0.510440
0.512173
0.513911
0.515655
0.517405
0.519160
0.520922
0.522690
0.524464
0.526244
0.528029
0.529821
0.531619
0.533423
0.535234
0.537050
0.538872
0.540701
0.542536
0.544377
0.546225
0.548078
0.549938
0.551804
0.553677
0.555556
0.557441
0.559333
0.561231
0.563136
0.565047
0.566964
0.568888
0.570819
0.572756
0.574700
0.576650
0.578607
0.580570
0.582540
0.584517
0.586501
0.588491
0.590488
0.592492
0.594503
0.596520
0.598545
0.600576
0.602614
0.604659
0.606711
0.608770
0.610836
0.612909
0.614989
0.617076
0.619170
0.621271
0.623379
0.625495
0.627617
0.629747
0.631884
0.634029
0.636180
0.638339
0.640505
0.642679
0.644860
0.647048
0.649244
0.651447
0.653658
0.655876
0.658102
0.660335
0.662576
0.664825
0.667081
0.669345
0.671616
0.673895
0.676182
0.678477
0.680779
0.683090
0.685408
0.687734
0.690067
0.692409
0.694759
0.697117
0.699482
0.701856
0.704238
0.706628
0.709026
0.711432
0.713846
0.716269
0.718699
0.721138
0.723586
0.726041
0.728505
0.730977
0.733458
0.735947
0.738444
0.740950
0.743465
0.745988
0.748519
0.751059
0.753608
0.756166
0.758732
0.761307
0.763890
0.766482
0.769083
0.771693
0.774312
0.776940
0.779576
0.782222
0.784877
0.787540
0.790213
0.792894
0.795585
0.798285
0.800994
0.803712
0.806440
0.809176
0.811922
0.814678
0.817442
0.820216
0.823000
0.825793
0.828595
0.831407
0.834228
0.837059
0.839900
0.842750
0.845610
0.848480
0.851359
0.854248
0.857147
0.860056
0.862975
0.865903
0.868842
0.871790
0.874749
0.877717
0.880696
0.883684
0.886683
0.889692
0.892711
0.895741
0.898781
0.901831
0.904891
0.907962
0.911043
0.914135
0.917237
0.920350
0.923473
0.926607
0.929751
0.932907
0.936072
0.939249
0.942436
0.945635
0.948844
0.952064
0.955295
0.958536
0.961789
0.965053
0.968328
0.971614
0.974911
0.978220
0.981540
0.984870
0.988213
0.991566
0.994931
0.998308
1.001695
1.005095
1.008506
1.011928
1.015362
1.018808
1.022265
1.025734
1.029215
1.032708
1.036212
1.039729
1.043257
1.046798
1.050350
1.053914
1.057491
1.061079
1.064680
1.068293
1.071919
1.075556
1.079206
1.082869
1.086543
1.090231
1.093930
1.097643
1.101368
1.105105
1.108855
1.112618
1.116394
1.120183
1.123984
1.127798
1.131626
1.135466
1.139319
1.143186
1.147065
1.150958
1.154864
1.158783
1.162715
1.166661
1.170620
1.174592
1.178579
1.182578
1.186591
1.190618
1.194658
1.198713
1.202781
1.206862
1.210958
1.215067
1.219191
1.223328
1.227479
1.231645
1.235825
1.240019
1.244227
1.248449
1.252686
1.256937
1.261202
1.265482
1.269777
1.274086
1.278409
1.282748
1.287101
1.291469
1.295851
1.300249
1.304661
1.309089
1.313531
1.317989
1.322462
1.326949
1.331453
1.335971
1.340505
1.345054
1.349618
1.354198
1.358794
1.363405
1.368032
1.372674
1.377332
1.382007
1.386696
1.391402
1.396124
1.400862
1.405616
1.410386
1.415172
1.419975
1.424793
1.429628
1.434480
1.439348
1.444233
1.449134
1.454051
1.458986
1.463937
1.468905
1.473890
1.478891
1.483910
1.488946
1.493999
1.499069
1.504156
1.509260
1.514382
1.519521
1.524678
1.529852
1.535044
1.540253
1.545480
1.550724
1.555987
1.561267
1.566565
1.571882
1.577216
1.582568
1.587939
1.593328
1.598735
1.604160
1.609604
1.615066
1.620547
1.626047
1.631565
1.637101
1.642657
1.648231
1.653825
1.659437
1.665069
1.670719
1.676389
1.682078
1.687786
1.693514
1.699261
1.705027
1.710813
1.716619
1.722444
1.728290
1.734155
1.740040
1.745945
1.751870
1.757815
1.763780
1.769765
1.775771
1.781797
1.787844
1.793911
1.799999
1.806107
1.812237
1.818386
1.824557
1.830749
1.836962
1.843196
1.849451
1.855727
1.862024
1.868343
1.874684
1.881045
1.887429
1.893834
1.900261
1.906709
1.913180
1.919673
1.926187
1.932724
1.939282
1.945864
1.952467
1.959093
1.965741
1.972412
1.979105
1.985822
1.992561
1.999323
2.006107
2.012915
2.019746
2.026600
2.033478
2.040378
2.047303
2.054250
2.061221
2.068216
2.075235
2.082277
2.089344
2.096434
2.103548
2.110687
2.117850
2.125037
2.132248
2.139484
2.146745
2.154030
2.161340
2.168674
2.176034
2.183418
2.190828
2.198262
2.205722
2.213208
2.220718
2.228254
2.235816
2.243404
2.251017
2.258656
2.266321
2.274011
2.281728
2.289472
2.297241
2.305037
2.312859
2.320708
2.328583
2.336486
2.344415
2.352371
2.360353
2.368363
2.376401
2.384465
2.392557
2.400676
2.408823
2.416998
2.425200
2.433430
2.441688
2.449974
2.458288
2.466630
2.475001
2.483400
2.491828
2.500284
2.508769
2.517282
2.525825
2.534396
2.542997
2.551627
2.560286
2.568975
2.577692
2.586440
2.595217
2.604024
2.612861
2.621728
2.630625
2.639552
2.648510
2.657498
2.666516
2.675565
2.684645
2.693755
2.702897
2.712069
2.721273
2.730507
2.739774
2.749071
2.758400
2.767761
2.777154
2.786578
2.796035
2.805523
2.815044
2.824597
2.834182
2.843800
2.853451
2.863134
2.872850
2.882600
2.892382
2.902197
2.912046
2.921928
2.931844
2.941794
2.951777
2.961794
2.971845
2.981930
2.992049
3.002203
3.012391
3.022614
3.032871
3.043163
3.053491
3.063853
3.074250
3.084683
3.095151
3.105655
3.116194
3.126769
3.137380
3.148027
3.158710
3.169429
3.180184
3.190977
3.201805
3.212671
3.223573
3.234513
3.245489
3.256503
3.267554
3.278643
3.289769
3.300933
3.312135
3.323375
3.334653
3.345969
3.357324
3.368717
3.380149
3.391620
3.403130
3.414679
3.426266
3.437894
3.449560
3.461267
3.473013
3.484799
3.496624
3.508490
3.520397
3.532343
3.544331
3.556359
3.568427
3.580537
3.592688
3.604880
3.617113
3.629388
3.641705
3.654063
3.666463
3.678906
3.691390
3.703917
3.716487
3.729099
3.741754
3.754451
3.767192
3.779977
3.792804
3.805675
3.818590
3.831549
3.844551
3.857598
3.870689
3.883824
3.897004
3.910229
3.923499
3.936813
3.950173
3.963578
3.977029
3.990525
4.004067
4.017655
4.031290
4.044970
4.058697
4.072470
4.086291
4.100158
4.114072
4.128033
4.142042
4.156098
4.170202
4.184354
4.198554
4.212802
4.227098
4.241443
4.255837
4.270279
4.284771
4.299311
4.313901
4.328541
4.343230
4.357969
4.372758
4.387597
4.402487
4.417427
4.432418
4.447459
4.462552
4.477696
4.492891
4.508138
4.523437
4.538787
4.554190
4.569645
4.585152
4.600712
4.616325
4.631991
4.647710
4.663482
4.679308
4.695188
4.711121
4.727108
4.743150
4.759246
4.775397
4.791603
4.807863
4.824179
4.840550
4.856977
4.873459
4.889998
4.906592
4.923243
4.939950
4.956715
4.973535
4.990413
5.007349
5.024341
5.041392
5.058500
5.075666
5.092891
5.110174
5.127516
5.144916
5.162376
5.179895
5.197473
5.215111
5.232809
5.250567
5.268385
5.286263
5.304203
5.322203
5.340264
5.358386
5.376570
5.394816
5.413124
5.431494
5.449926
5.468420
5.486978
5.505598
5.524282
5.543029
5.561839
5.580714
5.599652
5.618655
5.637722
5.656854
}